X: 2186
T: The EARL OF DALKEITH
Q: "Reel."
R: Reel.
%R: reel
B: James Kerr "Merry Melodies" v.2 p.21 #186
Z: 2016 John Chambers <jc:trillian.mit.edu>
M: C
L: 1/8
K: F
uA |\
FCA,C F/F/F (AF) | G/G/G (BA) GDDG |\
FCA,C F/F/F (AF) | dfcf AFF ::\
uc |\
fgag fefc | d/d/d (ba) gdde |\
fgag fefc | AcGB AFF :|

%%sep 1 1 500
%%sep 1 1 500

